svg/u270a_1f3fe.svg

<svg viewBox="0 0 128 128" xmlns="http://www.w3.org/2000/svg" xmlns:xlink="http://www.w3.org/1999/xlink">
  <radialGradient id="h" cx="63.512" cy="68.073" gradientTransform="matrix(-.698 .7161 -.7228 -.7045 157.05 70.554)" gradientUnits="userSpaceOnUse" r="59.237">
    <stop offset=".2457" stop-color="#8D5738"/>
    <stop offset=".6861" stop-color="#A56C43"/>
    <stop offset=".9986" stop-color="#8D5738"/>
  </radialGradient>
  <path d="m63.34 122.5c-31.12 0-52.85-22.87-52.85-55.61v-31.18c0-2.62 6.47-5.41 24.62-5.41 27.07 0 65.22 6.15 72.88 10.57 9.36 5.41 13.08 24.32 8.29 42.17-3.17 11.87-14.7 39.46-52.94 39.46z" fill="url(#h)"/>
  <path d="m35.12 31.8c26.88 0 64.62 6.03 72.13 10.37 4 2.31 7.16 7.8 8.66 15.05 1.62 7.8 1.24 16.83-1.07 25.43-2.01 7.51-6.47 18.2-16.24 26.53-9.22 7.84-21.08 11.82-35.26 11.82-15.3 0-28.31-5.46-37.65-15.79-8.83-9.77-13.69-23.38-13.69-38.32v-31.18c0-0.78 4.11-3.91 23.12-3.91m0-3c-14.94 0-26.12 1.88-26.12 6.91v31.18c0 31.41 20.48 57.11 54.34 57.11 61.43 0 66.24-72.39 45.4-84.43-8.25-4.77-46.93-10.77-73.62-10.77z" fill="#875334"/>
  <radialGradient id="g" cx="66.929" cy="-32.748" fx="75.815" fy="-74.6" gradientTransform="matrix(.0050598 1.0512 -.3363 .0024721 61.282 -56.561)" gradientUnits="userSpaceOnUse" r="42.785">
    <stop offset=".5" stop-color="#A56C43"/>
    <stop offset=".9991" stop-color="#8D5738"/>
  </radialGradient>
  <path d="m72.63 61.38c-6.76 0-12.26-5.5-12.26-12.26v-31.36c0-6.76 5.5-12.26 12.26-12.26s12.26 5.5 12.26 12.26v31.36c0 6.76-5.5 12.26-12.26 12.26z" fill="url(#g)"/>
  <path d="m72.63 7c5.93 0 10.76 4.83 10.76 10.76v31.35c0 5.93-4.83 10.76-10.76 10.76s-10.76-4.83-10.76-10.76v-31.35c0-5.93 4.83-10.76 10.76-10.76m0-3c-7.6 0-13.76 6.16-13.76 13.76v31.35c0 7.6 6.16 13.76 13.76 13.76s13.76-6.16 13.76-13.76v-31.35c0-7.6-6.16-13.76-13.76-13.76z" fill="#875334"/>
  <radialGradient id="f" cx="160.39" cy="-30.336" gradientTransform="matrix(-.0821 1.0478 -.3153 -.0287 102.77 -150.99)" gradientUnits="userSpaceOnUse" r="38.103">
    <stop offset=".5" stop-color="#A56C43"/>
    <stop offset=".9991" stop-color="#8D5738"/>
  </radialGradient>
  <path d="m97.84 64.21c-0.22 0-0.45-0.01-0.68-0.02-3.27-0.18-6.28-1.62-8.46-4.06s-3.29-5.58-3.11-8.85l1.7-31.31c0.35-6.5 5.73-11.59 12.23-11.59 0.22 0 0.45 0.01 0.68 0.02 3.27 0.18 6.27 1.62 8.46 4.06s3.29 5.58 3.11 8.85l-1.7 31.31c-0.36 6.5-5.73 11.59-12.23 11.59z" fill="url(#f)"/>
  <path d="m99.52 9.88c0.2 0 0.4 0.01 0.6 0.02 2.87 0.16 5.51 1.42 7.43 3.56s2.89 4.9 2.73 7.77l-1.7 31.31c-0.31 5.71-5.02 10.18-10.73 10.18-0.2 0-0.4-0.01-0.6-0.02-2.87-0.16-5.51-1.42-7.43-3.56s-2.89-4.9-2.73-7.77l1.7-31.31c0.3-5.71 5.02-10.18 10.73-10.18m-0.01-3c-7.26 0-13.33 5.68-13.73 13.01l-1.7 31.31c-0.41 7.59 5.4 14.07 12.99 14.49 0.25 0.01 0.51 0.02 0.76 0.02 7.26 0 13.33-5.68 13.73-13.01l1.7-31.31c0.41-7.59-5.4-14.07-12.99-14.49-0.25-0.01-0.5-0.02-0.76-0.02z" fill="#875334"/>
  <radialGradient id="e" cx="-16.71" cy="-24.662" gradientTransform="matrix(.0645 1.048 -.3973 .0266 37.601 40.462)" gradientUnits="userSpaceOnUse" r="32.108">
    <stop offset=".5" stop-color="#A56C43"/>
    <stop offset=".9991" stop-color="#8D5738"/>
  </radialGradient>
  <path d="m48.17 60.2c-6.69 0-12.2-5.24-12.55-11.93l-1.32-25.79c-0.17-3.35 0.97-6.57 3.22-9.07 2.25-2.49 5.34-3.96 8.69-4.13 0.22-0.01 0.44-0.02 0.65-0.02 6.69 0 12.2 5.24 12.55 11.93l1.32 25.79c0.35 6.92-4.99 12.85-11.92 13.2-0.2 0.02-0.42 0.02-0.64 0.02z" fill="url(#e)"/>
  <path d="m46.88 7.76v3c5.89 0 10.75 4.62 11.05 10.51l1.32 25.79c0.15 2.95-0.86 5.79-2.84 7.99s-4.7 3.49-7.66 3.64c-0.19 0.01-0.39 0.01-0.58 0.01-5.89 0-10.75-4.62-11.05-10.51l-1.31-25.79c-0.15-2.95 0.86-5.79 2.84-7.99s4.7-3.49 7.66-3.64c0.19-0.01 0.39-0.01 0.58-0.01l-0.01-3m0 0c-0.24 0-0.49 0.01-0.73 0.02-7.76 0.4-13.73 7.01-13.34 14.78l1.32 25.79c0.38 7.52 6.6 13.36 14.04 13.36 0.24 0 0.49-0.01 0.73-0.02 7.76-0.4 13.73-7.01 13.34-14.78l-1.32-25.79c-0.38-7.52-6.6-13.36-14.04-13.36z" fill="#875334"/>
  <radialGradient id="d" cx="-47.373" cy="-28.481" gradientTransform="matrix(.0573 1.0482 -.3814 .0205 12.972 69.389)" gradientUnits="userSpaceOnUse" r="41.572">
    <stop offset=".5" stop-color="#A56C43"/>
    <stop offset=".9991" stop-color="#8D5738"/>
  </radialGradient>
  <path d="m23.19 63.2c-6.61 0-12.08-5.17-12.45-11.78l-1.11-19.67c-0.39-6.87 4.89-12.78 11.76-13.17 0.24-0.01 0.48-0.02 0.71-0.02 6.61 0 12.08 5.17 12.45 11.78l1.11 19.67c0.19 3.33-0.93 6.53-3.15 9.02s-5.28 3.96-8.61 4.15c-0.23 0.01-0.47 0.02-0.71 0.02z" fill="url(#d)"/>
  <path d="m22.11 17.07v3c5.81 0 10.62 4.55 10.95 10.36l1.11 19.67c0.34 6.05-4.3 11.24-10.35 11.58-0.21 0.01-0.42 0.02-0.63 0.02-5.81 0-10.62-4.55-10.95-10.36l-1.11-19.67c-0.17-2.93 0.82-5.75 2.77-7.93 1.95-2.19 4.64-3.48 7.57-3.65 0.21-0.01 0.42-0.02 0.63-0.02l0.01-3m0 0c-0.26 0-0.53 0.01-0.8 0.02-7.71 0.43-13.61 7.04-13.17 14.75l1.11 19.66c0.42 7.44 6.59 13.19 13.95 13.19 0.26 0 0.53-0.01 0.8-0.02 7.71-0.44 13.61-7.04 13.17-14.75l-1.11-19.67c-0.43-7.43-6.59-13.18-13.95-13.18z" fill="#875334"/>
  <path d="m104.72 72.34c-5.7-1.29-11.87-1.58-17.14 1.34-5.42 2.99-7.96 8.7-9.85 14.31-0.62 1.83 2.28 2.62 2.89 0.8 1.65-4.88 3.73-9.89 8.47-12.52 4.55-2.52 9.94-2.15 14.83-1.04 1.88 0.43 2.68-2.46 0.8-2.89z" fill="#875334"/>
  <defs>
    <path id="c" d="m52.54 45.16c-9.19 0-10.7 9.57-8.51 15.04s8.73 9.28 14.55 8.75c20.86-1.91 26.1 1.19 28.82 6.83 3.75 7.79 7.6 8.31 12.19 8.15 8.3-0.29 12.59-12.59 12.88-24.04 0.32-12.93-28.63-17.74-28.63-17.74s-26.91 3.01-31.3 3.01z"/>
  </defs>
  <clipPath id="b">
    <use xlink:href="#c"/>
  </clipPath>
  <g clip-path="url(#b)">
    <radialGradient id="a" cx="54.722" cy="205.46" gradientTransform="matrix(.7956 0 0 .8691 16.986 -122.3)" gradientUnits="userSpaceOnUse" r="188.69">
      <stop offset="0" stop-color="#A56C43"/>
      <stop offset=".4321" stop-color="#A26942"/>
      <stop offset=".7794" stop-color="#98603D"/>
      <stop offset=".9991" stop-color="#8D5738"/>
    </radialGradient>
    <path d="m103.33 87.58c-3.91-0.07-9.08-5.19-12.58-12.46-2.38-4.95-6.59-8.25-19.4-8.25-3.15 0-6.72 0.19-10.91 0.57-0.32 0.03-0.64 0.04-0.96 0.04-5.07 0-10.26-3.38-12.06-7.86-1.1-2.74-1.19-7.03 0.77-9.93 1.37-2.02 3.5-3.05 6.34-3.05 4.24 0 28.27-2.66 31.2-2.99 8.7 2.06 30.62 9.27 31.54 18.85 0.98 10.23-0.34 17.41-3.91 21.34-2.27 2.5-5.43 3.72-9.65 3.72l-0.38 0.02z" fill="url(#a)"/>
    <path d="m85.65 45.19c11.47 2.75 29.4 9.78 30.13 17.48 0.94 9.79-0.25 16.58-3.53 20.19-1.97 2.17-4.77 3.23-8.54 3.23h-0.35c-2.84-0.05-7.62-4.05-11.25-11.61-3.15-6.55-8.97-9.1-20.75-9.1-3.19 0-6.81 0.19-11.05 0.58-0.27 0.02-0.55 0.04-0.83 0.04-4.42 0-9.11-3.04-10.66-6.92-0.93-2.31-1.03-6.09 0.62-8.53 1.09-1.61 2.76-2.39 5.1-2.39 4.22 0 27.24-2.54 31.11-2.97m0.18-3.04s-26.9 3.01-31.29 3.01c-9.19 0-10.7 9.57-8.51 15.04 2.06 5.13 7.93 8.8 13.45 8.8 0.37 0 0.74-0.02 1.1-0.05 4.19-0.38 7.74-0.57 10.78-0.57 12.09 0 15.87 2.89 18.04 7.4 3.75 7.79 9.31 13.23 13.9 13.31h0.41c15.26 0 16.15-15.32 15.06-26.7-1.23-12.89-32.94-20.24-32.94-20.24z" fill="#875334"/>
  </g>
</svg>

<svg viewBox="0 0 128 128" xmlns="http://www.w3.org/2000/svg">
  <defs>
    <radialGradient id="h" cx="4.418526" cy="-92.141105" gradientTransform="matrix(-0.698 0.7161 -0.7228 -0.7045 0 0)" gradientUnits="userSpaceOnUse" r="59.237">
      <stop offset=".2457" stop-color="#8D5738"/>
      <stop offset=".6861" stop-color="#A56C43"/>
      <stop offset=".9986" stop-color="#8D5738"/>
    </radialGradient>
    <radialGradient id="g" cx="13.553298" cy="-215.775268" fx="22.439298" fy="-257.627268" gradientTransform="matrix(0.00506 1.0512 -0.3363 0.002472 0 0)" gradientUnits="userSpaceOnUse" r="42.785">
      <stop offset=".5" stop-color="#A56C43"/>
      <stop offset=".9991" stop-color="#8D5738"/>
    </radialGradient>
    <radialGradient id="f" cx="8.44395" cy="-316.71478" gradientTransform="matrix(-0.0821 1.0478 -0.3153 -0.0287 0 0)" gradientUnits="userSpaceOnUse" r="38.103">
      <stop offset=".5" stop-color="#A56C43"/>
      <stop offset=".9991" stop-color="#8D5738"/>
    </radialGradient>
    <radialGradient id="e" cx="24.132638" cy="-112.672697" gradientTransform="matrix(0.0645 1.048 -0.3973 0.0266 0 0)" gradientUnits="userSpaceOnUse" r="32.108">
      <stop offset=".5" stop-color="#A56C43"/>
      <stop offset=".9991" stop-color="#8D5738"/>
    </radialGradient>
    <radialGradient id="d" cx="19.294536" cy="-52.476674" gradientTransform="matrix(0.0573 1.0482 -0.3814 0.0205 0 0)" gradientUnits="userSpaceOnUse" r="41.572">
      <stop offset=".5" stop-color="#A56C43"/>
      <stop offset=".9991" stop-color="#8D5738"/>
    </radialGradient>
    <radialGradient id="a" cx="76.071925" cy="64.739715" gradientTransform="matrix(0.7956 0 0 0.8691 0 0)" gradientUnits="userSpaceOnUse" r="188.69">
      <stop offset="0" stop-color="#A56C43"/>
      <stop offset=".4321" stop-color="#A26942"/>
      <stop offset=".7794" stop-color="#98603D"/>
      <stop offset=".9991" stop-color="#8D5738"/>
    </radialGradient>
  </defs>
  <path d="M63.34,122.5 C32.22,122.5 10.49,99.63 10.49,66.89 L10.49,35.71 C10.49,33.09 16.96,30.3 35.11,30.3 C62.18,30.3 100.33,36.45 107.99,40.87 C117.35,46.28 121.07,65.19 116.28,83.04 C113.11,94.91 101.58,122.5 63.34,122.5 Z" fill="url(#h)"/>
  <path d="M35.12,31.8 C62,31.8 99.74,37.83 107.25,42.17 C111.25,44.48 114.41,49.97 115.91,57.22 C117.53,65.02 117.15,74.05 114.84,82.65 C112.83,90.16 108.37,100.85 98.6,109.18 C89.38,117.02 77.52,121 63.34,121 C48.04,121 35.03,115.54 25.69,105.21 C16.86,95.44 12,81.83 12,66.89 L12,35.71 C12,34.93 16.11,31.8 35.12,31.8 M35.12,28.8 C20.18,28.8 9,30.68 9,35.71 L9,66.89 C9,98.3 29.48,124 63.34,124 C124.77,124 129.58,51.61 108.74,39.57 C100.49,34.8 61.81,28.8 35.12,28.8 Z" fill="#875334"/>
  <path d="M72.63,61.38 C65.87,61.38 60.37,55.88 60.37,49.12 L60.37,17.76 C60.37,11 65.87,5.5 72.63,5.5 C79.39,5.5 84.89,11 84.89,17.76 L84.89,49.12 C84.89,55.88 79.39,61.38 72.63,61.38 Z" fill="url(#g)"/>
  <path d="M72.63,7 C78.56,7 83.39,11.83 83.39,17.76 L83.39,49.11 C83.39,55.04 78.56,59.87 72.63,59.87 C66.7,59.87 61.87,55.04 61.87,49.11 L61.87,17.76 C61.87,11.83 66.7,7 72.63,7 M72.63,4 C65.03,4 58.87,10.16 58.87,17.76 L58.87,49.11 C58.87,56.71 65.03,62.87 72.63,62.87 C80.23,62.87 86.39,56.71 86.39,49.11 L86.39,17.76 C86.39,10.16 80.23,4 72.63,4 Z" fill="#875334"/>
  <path d="M97.84,64.21 C97.62,64.21 97.39,64.2 97.16,64.19 C93.89,64.01 90.88,62.57 88.7,60.13 C86.52,57.69 85.41,54.55 85.59,51.28 L87.29,19.97 C87.64,13.47 93.02,8.38 99.52,8.38 C99.74,8.38 99.97,8.39 100.2,8.4 C103.47,8.58 106.47,10.02 108.66,12.46 C110.85,14.9 111.95,18.04 111.77,21.31 L110.07,52.62 C109.71,59.12 104.34,64.21 97.84,64.21 Z" fill="url(#f)"/>
  <path d="M99.52,9.88 C99.72,9.88 99.92,9.89 100.12,9.9 C102.99,10.06 105.63,11.32 107.55,13.46 C109.47,15.6 110.44,18.36 110.28,21.23 L108.58,52.54 C108.27,58.25 103.56,62.72 97.85,62.72 C97.65,62.72 97.45,62.71 97.25,62.7 C94.38,62.54 91.74,61.28 89.82,59.14 C87.9,57 86.93,54.24 87.09,51.37 L88.79,20.06 C89.09,14.35 93.81,9.88 99.52,9.88 M99.51,6.88 C92.25,6.88 86.18,12.56 85.78,19.89 L84.08,51.2 C83.67,58.79 89.48,65.27 97.07,65.69 C97.32,65.7 97.58,65.71 97.83,65.71 C105.09,65.71 111.16,60.03 111.56,52.7 L113.26,21.39 C113.67,13.8 107.86,7.32 100.27,6.9 C100.02,6.89 99.77,6.88 99.51,6.88 Z" fill="#875334"/>
  <path d="M48.17,60.2 C41.48,60.2 35.97,54.96 35.62,48.27 L34.3,22.48 C34.13,19.13 35.27,15.91 37.52,13.41 C39.77,10.92 42.86,9.45 46.21,9.28 C46.43,9.27 46.65,9.26 46.86,9.26 C53.55,9.26 59.06,14.5 59.41,21.19 L60.73,46.98 C61.08,53.9 55.74,59.83 48.81,60.18 C48.61,60.2 48.39,60.2 48.17,60.2 Z" fill="url(#e)"/>
  <path d="M46.88,7.76 L46.88,10.76 C52.77,10.76 57.63,15.38 57.93,21.27 L59.25,47.06 C59.4,50.01 58.39,52.85 56.41,55.05 C54.43,57.25 51.71,58.54 48.75,58.69 C48.56,58.7 48.36,58.7 48.17,58.7 C42.28,58.7 37.42,54.08 37.12,48.19 L35.81,22.4 C35.66,19.45 36.67,16.61 38.65,14.41 C40.63,12.21 43.35,10.92 46.31,10.77 C46.5,10.76 46.7,10.76 46.89,10.76 L46.88,7.76 M46.88,7.76 C46.64,7.76 46.39,7.77 46.15,7.78 C38.39,8.18 32.42,14.79 32.81,22.56 L34.13,48.35 C34.51,55.87 40.73,61.71 48.17,61.71 C48.41,61.71 48.66,61.7 48.9,61.69 C56.66,61.29 62.63,54.68 62.24,46.91 L60.92,21.12 C60.54,13.6 54.32,7.76 46.88,7.76 Z" fill="#875334"/>
  <path d="M23.19,63.2 C16.58,63.2 11.11,58.03 10.74,51.42 L9.63,31.75 C9.24,24.88 14.52,18.97 21.39,18.58 C21.63,18.57 21.87,18.56 22.1,18.56 C28.71,18.56 34.18,23.73 34.55,30.34 L35.66,50.01 C35.85,53.34 34.73,56.54 32.51,59.03 C30.29,61.52 27.23,62.99 23.9,63.18 C23.67,63.19 23.43,63.2 23.19,63.2 Z" fill="url(#d)"/>
  <path d="M22.11,17.07 L22.11,20.07 C27.92,20.07 32.73,24.62 33.06,30.43 L34.17,50.1 C34.51,56.15 29.87,61.34 23.82,61.68 C23.61,61.69 23.4,61.7 23.19,61.7 C17.38,61.7 12.57,57.15 12.24,51.34 L11.13,31.67 C10.96,28.74 11.95,25.92 13.9,23.74 C15.85,21.55 18.54,20.26 21.47,20.09 C21.68,20.08 21.89,20.07 22.1,20.07 L22.11,17.07 M22.11,17.07 C21.85,17.07 21.58,17.08 21.31,17.09 C13.6,17.52 7.7,24.13 8.14,31.84 L9.25,51.5 C9.67,58.94 15.84,64.69 23.2,64.69 C23.46,64.69 23.73,64.68 24,64.67 C31.71,64.23 37.61,57.63 37.17,49.92 L36.06,30.25 C35.63,22.82 29.47,17.07 22.11,17.07 Z" fill="#875334"/>
  <path d="M104.72,72.34 C99.02,71.05 92.85,70.76 87.58,73.68 C82.16,76.67 79.62,82.38 77.73,87.99 C77.11,89.82 80.01,90.61 80.62,88.79 C82.27,83.91 84.35,78.9 89.09,76.27 C93.64,73.75 99.03,74.12 103.92,75.23 C105.8,75.66 106.6,72.77 104.72,72.34 Z" fill="#875334"/>
  <path d="M109.759,53.238 C111.485,55.164 112.532,57.373 112.47,59.89 C112.18,71.34 107.89,83.64 99.59,83.93 C98.597,83.965 97.638,83.967 96.708,83.872 C94.552,81.686 92.453,78.658 90.75,75.12 C88.37,70.17 84.16,66.87 71.35,66.87 C68.2,66.87 64.63,67.06 60.44,67.44 C60.12,67.47 59.8,67.48 59.48,67.48 C54.41,67.48 49.22,64.1 47.42,59.62 C46.32,56.88 46.23,52.59 48.19,49.69 C49.56,47.67 51.69,46.64 54.53,46.64 C58.77,46.64 82.8,43.98 85.73,43.65 C91.311,44.971 102.331,48.412 109.759,53.238 Z" fill="url(#a)"/>
  <path d="M85.65,45.19 C81.78,45.62 58.76,48.16 54.54,48.16 C52.2,48.16 50.53,48.94 49.44,50.55 C47.79,52.99 47.89,56.77 48.82,59.08 C50.37,62.96 55.06,66 59.48,66 C59.76,66 60.04,65.98 60.31,65.96 C64.55,65.57 68.17,65.38 71.36,65.38 C83.14,65.38 88.96,67.93 92.11,74.48 C94.209,78.851 96.692,82.032 98.962,83.947 C97.266,83.978 95.67,83.872 94.14,83.279 C92.407,81.198 90.781,78.649 89.4,75.78 C87.23,71.27 83.45,68.38 71.36,68.38 C70.963,68.38 70.558,68.383 70.144,68.39 C66.943,68.355 63.134,68.533 58.58,68.95 C58.543,68.953 58.506,68.957 58.468,68.96 C53.259,68.547 47.965,65.017 46.03,60.2 C43.84,54.73 45.35,45.16 54.54,45.16 C58.364,45.16 79.27,42.876 84.595,42.287 C88.708,43.069 108.354,47.265 111.918,56.672 C105.871,51.498 94.035,47.2 85.65,45.19 Z" fill="#875334"/>
</svg>
